X: 120
T: Cantantibus organis – Andantino
C: Franciszek Walczyński
%%abc-version 2.0
%%abcx-abcm2ps-target-version 5.9.1 (29 Sep 2008)
%%abc-creator hum2abc beta
%%abcx-conversion-date 2021/10/04 07:38:42
%%abc-edited-by Kamil Watkowski
%%abcx-initial-encoding-date 2021-08-09
%%humdrum-veritas 2154360361
%%humdrum-veritas-data 67282289
%%linebreak <none>
%%barnumbers 0
L: 1/8
M: 6/8
N: Derived from pl-kozmzk--mzk-m-346--022_walczynski-franciszek--cantantibus-organis-andantino.krn
%%staves {1 2}
V: 1 clef=treble
V: 2 clef=bass
K: A
[V:1] cdG BAF & z6 | 
[V:2] z6 & z6 | 
[V:1] E6 | 
[V:2] z [B,D][A,C] [G,B,][A,C][B,D] & z6 | 
[V:1] A3-A2B & E3F2A | 
[V:2] C3-C2F & A,3F,2D, | 
[V:1] c6 & G6 | 
[V:2] ^E6 & C,6 | 
[V:1] z6 & z6 | 
[V:2] z6 & CDG, B,A,F, | 
[V:1] z EF GAB & zD2-D3- | 
[V:2] z G,A, B,A,G, & E,6 | 
[V:1] B3A3 & D3C3 | 
[V:2] G,3A,3 & ^E,3F,3 | 
[V:1] G2F EBA & ^D3E3- | 
[V:2] B,2A, G,DC & B,,3E,3- | 
[V:1] Gdc BAG & E6 | 
[V:2] B,FE DCB, & E,6 | 
[V:1] A3-A3- & C2>-C2DE- | 
[V:2] A,3=G,3 & A,,6- | 
[V:1] A6- & E2D- DA,B, | 
[V:2] F,3=F,3 & A,,6- | 
[V:1] A6 & C6 | 
[V:2] E,6 & A,,6 | 
[V:1] z6 & z6 | 
[V:2] z6 & C,D,G,, B,,A,,F,, | 
[V:1] [D6G6B6] | 
[V:2] x6 & E,,2>-E,,2=F,,E,, | 
[V:1] [C2E2A2]z[D3=F3A3] | 
[V:2] x2xA,3- & A,,2zD,,2=F,, | 
[V:1] !fermata![C6E6A6] |]  
[V:2] [E,6A,6] & !fermata!A,,6 |]  


